Papirus/24x24/apps/google-chrome-unstable.svg

<svg xmlns="http://www.w3.org/2000/svg" width="24" height="24" version="1">
 <rect style="opacity:.2" width="8.995" height="8.986" x="-16.99" y="-16.48" rx="4.498" ry="4.493" transform="matrix(0,-1,-1,0,0,0)"/>
 <path style="fill:#f66f6f" d="m3.3478 17.021c1.7514 3.037 4.8367 4.794 8.0782 4.979 3.4563-1.9071 5.2884-4.3315 4.3936-7.6245-0.37892 0.61782-0.90432 1.1538-1.578 1.5431-1.0705 0.61867-2.0616-0.03158-3.1649-0.32134-1.1189-0.293-2.3466-0.238-2.9732-1.325l-4.4624-7.736c-2.0082 3.0544-2.2514 7.091-0.294 10.485z"/>
 <path style="opacity:.2;fill:#ffffff" d="m11.985 2c-5.5318 0-9.985 4.4576-9.985 9.995 0 0.08396 0.00379 0.16641 0.00584 0.24987 0.1319-5.4206 4.5312-9.7448 9.9788-9.7448 5.4475 0 9.847 4.3242 9.9788 9.7448 0.002-0.08338 0.0059-0.16598 0.0059-0.24987 0-5.5374-4.453-9.995-9.985-9.995z"/>
 <path style="opacity:.2" d="m2.0058 12.255c-0.00205 0.08346-0.00584 0.16591-0.00584 0.24987 0 5.5371 4.4532 9.9947 9.9848 9.9947s9.9848-4.4576 9.9848-9.9947c0-0.08396-0.004-0.16641-0.006-0.24987-0.1318 5.4201-4.5311 9.7448-9.9788 9.7448s-9.847-4.3247-9.9788-9.7448z"/>
 <path style="fill:#e64646" d="m12.126953 2.0097656c-0.20693-0.00292-0.412426-0.0001563-0.619141 0.00977-1.7310578 0.086359-3.4379584 0.6676671-4.9199214 1.5742188-0.00111 0.0006783-0.0028 0.00127-0.00391 0.00195l-0.00195 0.00195c-0.2180621 0.1426894-0.4304638 0.2938465-0.6367181 0.4531268-0.233767 0.1790616-0.4595031 0.368205-0.6757813 0.5664063-0.0426382 0.0373997-0.0849574 0.0751615-0.1269531 0.1132813-0.8095147 0.767599-1.4889569 1.6643793-2.0039062 2.6601562l4.5703125 7.177734c-0.3720329-0.621399-0.1798089-1.605419-0.2128906-2.382812-0.0564879-1.329362 1.1124284-1.94437 1.9902343-2.8046876 0.7647039-0.7495155 2.5636449-1.7774177 2.2396719-2.3808594h8.918531c-0.210921-0.3686989-0.445119-0.7235845-0.701172-1.0625-0.033802-0.0415252-0.067095-0.0840231-0.101562-0.125-0.195838-0.2491227-0.402971-0.48798-0.621094-0.7167969-0.097267-0.1009429-0.197394-0.2001176-0.298828-0.296875l-0.01563-0.015625c-0.0063-0.00607-0.01318-0.01153-0.01953-0.017578-0.180889-0.1723426-0.369233-0.3356088-0.562496-0.4941407-0.058169-0.0496764-0.118446-0.0962057-0.177735-0.1445313-0.08868-0.069876-0.178536-0.1382452-0.269531-0.2050781-0.221614-0.1615875-0.452638-0.3119179-0.6875-0.4550781-0.076175-0.0485649-0.153006-0.0960953-0.230469-0.1425781-0.110941-0.0599917-0.222801-0.120026-0.335937-0.1757813-0.218889-0.1144142-0.439979-0.2240496-0.667969-0.3222656-0.120926-0.0522165-0.242343-0.101043-0.365234-0.1484375-0.055159-0.0206709-0.1105-0.040854-0.166016-0.0605469-0.268446-0.0976372-0.541669-0.1850463-0.820312-0.2597656l-0.01172-0.00391c-0.144976-0.0403931-0.290847-0.0775119-0.437499-0.1113244-0.172184-0.0370467-0.345639-0.0678021-0.519531-0.0957031-0.153094-0.0263637-0.306782-0.0491563-0.460938-0.0683594-0.16287-0.0188808-0.326643-0.032119-0.490234-0.0429688-0.126818-0.0089308-0.253794-0.0154424-0.38086-0.0195312-0.05859-0.00173-0.116845-0.00518-0.175781-0.00586z"/>
 <path style="fill:#e58989" d="m20.644531 6.9980469-8.509765 0.00391c0.72399 0.01959 1.4513 0.7102994 2.125 1.0996094 1.152 0.6658 1.044028 1.9811937 1.298828 3.1835937 0.22201 1.0475 1.502985 1.763734 0.923515 2.768334l-5.034843 7.919166c0.05727 0.0031 0.114562 0.0057 0.171875 0.0078 0.378591 0.01539 0.757311 0.01587 1.132812-0.01172 0.08672-0.0093 0.173317-0.0197 0.259766-0.03125 0.315309-0.03154 0.629317-0.07743 0.939453-0.138672 0.144583-0.02936 0.288498-0.06192 0.43164-0.09766 0.2513-0.06135 0.498318-0.136073 0.744141-0.216797 0.146269-0.04484 0.291489-0.09303 0.435547-0.144531 0.345071-0.131252 0.684117-0.281713 1.013672-0.451172 0.138564-0.07553 0.275321-0.154327 0.410156-0.236328 0.214017-0.123288 0.425626-0.250964 0.63086-0.390625 0.135121-0.09178 0.267974-0.186865 0.398437-0.285157 0.252881-0.191092 0.496691-0.394557 0.732422-0.611328 0.06984-0.05959 0.138858-0.120146 0.207031-0.18164 0.0036-0.0035 0.0081-0.0062 0.01172-0.0098 0.01241-0.01299 0.02477-0.02601 0.03711-0.03906 0.193649-0.192193 0.379351-0.39223 0.556641-0.59961 0.05444-0.0633 0.109052-0.126486 0.162109-0.191406 0.138482-0.169422 0.271367-0.343344 0.398438-0.521484 0.08222-0.115166 0.162235-0.231996 0.240234-0.351563 0.113524-0.173035 0.221649-0.349552 0.324219-0.529297 0.856184-1.506974 1.282063-3.259107 1.3125-4.996094 0.000023-0.0013-0.000023-0.0026 0-0.0039 0.0039-0.225455-0.01613-0.447553-0.02539-0.671875-0.11449-1.5058485-0.568558-2.9662087-1.328125-4.2714843z"/>
 <rect style="opacity:.2" width="10" height="10" x="-17.5" y="-17" rx="5" ry="5" transform="matrix(0,-1,-1,0,0,0)"/>
 <rect style="fill:#ffffff" width="10" height="10" x="-17" y="-17" rx="5" ry="5" transform="matrix(0,-1,-1,0,0,0)"/>
 <rect style="fill:#e64646" width="8" height="8" x="-16" y="-16" rx="4" ry="4" transform="matrix(0,-1,-1,0,0,0)"/>
 <path style="opacity:.2;fill:#ffffff" d="m12 2a10 10 0 0 0 -10 10 10 10 0 0 0 0.0097656 0.292969 10 10 0 0 1 9.9902344 -9.792969 10 10 0 0 1 9.990234 9.707031 10 10 0 0 0 0.009766 -0.207031 10 10 0 0 0 -10 -10z"/>
</svg>

<svg xmlns="http://www.w3.org/2000/svg" width="24" height="24" version="1">
 <circle style="opacity:0.2" cx="12" cy="12.5" r="10"/>
 <path style="fill:#f66f6f" d="M 3.348,17.021 C 5.099,20.058 8.185,21.815 11.426,22 14.882,20.093 16.714,17.668 15.82,14.375 15.441,14.993 14.916,15.529 14.242,15.918 13.171,16.537 12.18,15.886 11.077,15.597 9.958,15.304 8.73,15.359 8.104,14.272 L 3.642,6.536 C 1.634,9.59 1.391,13.627 3.348,17.021 Z"/>
 <path style="fill:#e64646" d="M 12.127,2 C 10.82,2 8.789,2.248 6.588,3.594 6.587,3.594 6.585,3.595 6.584,3.596 L 6.582,3.598 C 5.509,4.3 4.117,5.498 3.139,7.391 L 7.709,14.568 C 7.337,13.947 7.529,12.963 7.496,12.186 7.44,10.856 8.608,10.241 9.486,9.381 10.251,8.631 12.05,7.603 11.726,7 H 20.645 C 20.03,5.855 19.125,4.954 18.146,4.127 15.828,2.3 13.324,2 12.127,2 Z"/>
 <path style="fill:#e58989" d="M 20.645,6.998 12.135,7.002 C 12.859,7.021 13.586,7.712 14.26,8.102 15.412,8.767 15.304,10.083 15.559,11.285 15.781,12.333 17.062,13.049 16.482,14.053 L 11.447,21.973 C 11.505,21.976 11.562,21.978 11.619,21.98 15.313,22.131 18.819,20.212 20.686,16.941 21.542,15.434 22,13.682 22,11.945 V 11.941 C 22,11.716 21.982,11.494 21.973,11.269 21.858,9.764 21.404,8.303 20.645,6.998 Z"/>
 <path style="opacity:0.2;fill:#ffffff" d="M 12,2 A 10,10 0 0 0 2,12 10,10 0 0 0 2.0098,12.293 10,10 0 0 1 12,2.5 10,10 0 0 1 21.99,12.207 10,10 0 0 0 22,12 10,10 0 0 0 12,2 Z"/>
 <circle style="opacity:0.2" cx="12" cy="12.5" r="5"/>
 <circle style="fill:#ffffff" cx="12" cy="12" r="5"/>
 <circle style="fill:#e64646" cx="12" cy="12" r="4"/>
</svg>
